packages/crayons-core/src/components/icon/icon-assets/icons/decimal-field.svg

<?xml version="1.0" encoding="UTF-8"?>
<svg width="14px" height="14px" viewBox="0 0 14 14" version="1.1" xmlns="http://www.w3.org/2000/svg" xmlns:xlink="http://www.w3.org/1999/xlink">
    <!-- Generator: Sketch 52.6 (67491) - http://www.bohemiancoding.com/sketch -->
    <title>icon/decimal-field</title>
    <desc>Created with Sketch.</desc>
    <g id="Icons-✅" stroke="none" stroke-width="1" fill="none" fill-rule="evenodd">
        <g id="Icons" transform="translate(-409.000000, -2257.000000)" fill="currentColor">
            <g id="icon/decimal-field" transform="translate(409.000000, 2257.000000)">
                <g id="decimal-field">
                    <path d="M3.74,8.3 C3.02202983,8.3 2.44,7.71797017 2.44,7 C2.44,6.28202983 3.02202983,5.7 3.74,5.7 C4.45797017,5.7 5.04,6.28202983 5.04,7 C5.04,7.71797017 4.45797017,8.3 3.74,8.3 Z M10.86,9.12 L10.9,9.08 C11.2570549,9.12259995 11.525887,9.42541281 11.525887,9.785 C11.525887,10.1445872 11.2570549,10.4474001 10.9,10.49 L6.9,10.49 C6.62903246,10.4827563 6.38583375,10.3218605 6.27318634,10.0753114 C6.16053892,9.82876236 6.19810185,9.53958746 6.37,9.33 L8.96,6.33 C9.18792558,6.07109198 9.23910159,5.70105007 9.09,5.39 C8.9476415,5.07676408 8.63405344,4.87685169 8.29,4.88 C8.10792642,4.87732216 7.93238561,4.9477809 7.80268983,5.07559703 C7.67299405,5.20341316 7.59998031,5.37790673 7.6,5.56 C7.60000001,5.81008592 7.46658077,6.04117484 7.25000001,6.16621781 C7.03341925,6.29126077 6.76658075,6.29126077 6.54999999,6.16621781 C6.33341923,6.04117484 6.19999999,5.81008592 6.2,5.56 C6.20547278,4.40799939 7.13799939,3.47547278 8.29,3.47 C9.17508615,3.48439037 9.97261367,4.00760415 10.3382688,4.81375607 C10.7039239,5.61990799 10.5722133,6.56460641 10,7.24 L8.42,9.12 L10.86,9.12 Z M11.56,0.05 C12.2024857,0.0365559186 12.8233161,0.282411163 13.282401,0.732088533 C13.7414858,1.1817659 14.0001406,1.79737366 14,2.44 L14,11.56 C14.0137732,12.2112529 13.7611279,12.8399112 13.3005195,13.3005195 C12.8399112,13.7611279 12.2112529,14.0137732 11.56,14 L2.44,14 C1.79737366,14.0001406 1.1817659,13.7414858 0.732088533,13.282401 C0.282411163,12.8233161 0.0365559186,12.2024857 0.05,11.56 L0.05,2.44 C0.05,1.12003945 1.12003945,0.05 2.44,0.05 L11.56,0.05 Z M12.56,11.56 L12.56,2.44 C12.56,1.88771525 12.1122847,1.44 11.56,1.44 L2.44,1.44 C1.88771525,1.44 1.44,1.88771525 1.44,2.44 L1.44,11.56 C1.44,12.1122847 1.88771525,12.56 2.44,12.56 L11.56,12.56 C12.1122847,12.56 12.56,12.1122847 12.56,11.56 Z" id="Combined-Shape"></path>
                </g>
            </g>
        </g>
    </g>
</svg>

<svg viewBox="0 0 14 14"><path d="M3.74 8.3a1.3 1.3 0 1 1 0-2.6 1.3 1.3 0 0 1 0 2.6zm7.12.82l.04-.04a.71.71 0 0 1 0 1.41h-4a.71.71 0 0 1-.53-1.16l2.59-3a.86.86 0 0 0 .13-.94.87.87 0 0 0-.8-.51.68.68 0 0 0-.69.68.7.7 0 1 1-1.4 0 2.1 2.1 0 0 1 2.09-2.09A2.29 2.29 0 0 1 10 7.24L8.42 9.12h2.44zm.7-9.07A2.39 2.39 0 0 1 14 2.44v9.12A2.39 2.39 0 0 1 11.56 14H2.44a2.39 2.39 0 0 1-2.39-2.44V2.44A2.39 2.39 0 0 1 2.44.05h9.12zm1 11.51V2.44a1 1 0 0 0-1-1H2.44a1 1 0 0 0-1 1v9.12a1 1 0 0 0 1 1h9.12a1 1 0 0 0 1-1z" fill="currentColor" fill-rule="evenodd"/></svg>
